X:49
T:Motet
L:1/8
K:G
V:1
g |: f2ed2c | BcA G2F | B2A Gz G |
B2cd2e | g2f gbc' | g>af/e/ gzc | c2c G2F |
BcA Gz G | G2A B2c |1 BcA Gz g :|2 BcA Gzz |]
V:2
G |: B2c d2e | g2f gbc' | g/a/g/g/f/e/ g zg |
f2e d2c | BcA G2F | B2A Gz g | g2a b2a |
g2f gz g | g2e d/e/f/g/a/b/ | g>gf/e/ gz G :| g>gf/e/ gzz |]





